X: 174
T:The Fairy Jig
M:9/8
L:1/8
R:Jig
Z:Rachel Marsh,  25/10/1999
K:G
A2 G  Add Add|ABA AFA fAg|A2 G Add Add|cAG cAG FED:||
a3 fab afd|a3 faa baf | a3 baf afd | cAG cAG FED:||

